X: 104
T: Chwalcie Pana, imienia Jego wzywajcie
C: Mikołaj Gomółka
%%abc-version 2.0
%%abcx-abcm2ps-target-version 5.9.1 (29 Sep 2008)
%%abc-creator hum2abc beta
%%abcx-conversion-date 2021/10/04 07:59:09
%%abc-edited-by Marta Lawrence
%%abcx-initial-encoding-date 2020-02-16
%%humdrum-veritas 33852162
%%humdrum-veritas-data 1661062370
%%linebreak <none>
%%barnumbers 0
L: 1/4
M: C|
N: Derived from pl-wn--sd-xvi-qu-273--105_gomolka-mikolaj--chwalcie-pana-imienia-jego-wzywajcie.krn
%%staves [1 2 3 4]
V: 1
V: 2 clef=alto
V: 3 clef=alto
V: 4 clef=bass
K: C
[V:1] A4c2c2 [|] 
[V:2] E4E2E2 [|] 
[V:3] A,4A,2A,2 [|] 
[V:4] A,,4A,,2A,,2 [|] 
[V:1] B2A2G3G [|] 
[V:2] E2CD2<E2D [|] 
[V:3] G,2A,2B,2B,2 [|] 
[V:4] E,2F,2E,2E,2 [|] 
[V:1] E2^F2^GA2=G [|] 
[V:2] CB,A,2E3D [|] 
[V:3] C2D2B,2B,2 [|] 
[V:4] A,2D,2E,2E,2 [|] 
[V:1] A2A2A2A2 [|] 
[V:2] C2F2E2F2 [|] 
[V:3] A,2A,2A,2DC [|] 
[V:4] A,,2D,2C,2D,2 [|] 
[V:1] ^G2A2B4 [|] 
[V:2] E2C2E3D [|] 
[V:3] B,A,A,4^G,2 [|] 
[V:4] E,2F,2E,4 [|] 
[V:1] A2=G2A2c2 [|] 
[V:2] CD2<E2DCD [|] 
[V:3] A,2B,2C2C4 [|] 
[V:4] A,,2E,2A,,3B,, [|] 
[V:1] G4E32 |]  
[V:2] E2>D2^C32 |]  
[V:3] =G,2A,32 |]  
[V:4] C,D,E,2A,,32 |]  


